public/payments/common/shopify.svg

<svg width="44" height="45" viewBox="0 0 44 45" fill="none" xmlns="http://www.w3.org/2000/svg">
<path d="M1.16875 24.2875C1.5125 24.4937 2.2 24.7688 2.81875 24.7C3.36875 24.7 3.7125 24.425 3.7125 24.0125C3.7125 23.6688 3.50625 23.3937 2.8875 23.05C2.13125 22.6375 1.58125 22.0188 1.58125 21.1938C1.58125 19.75 2.81875 18.7875 4.5375 18.7875C5.29375 18.7875 5.9125 18.925 6.25625 19.1313L5.775 20.575C5.5 20.4375 5.01875 20.3 4.5375 20.3C3.9875 20.3 3.575 20.575 3.575 20.9875C3.575 21.3312 3.85 21.5375 4.33125 21.8125C5.0875 22.2937 5.775 22.9125 5.775 23.7375C5.775 25.3187 4.46875 26.2813 2.68125 26.2125C1.85625 26.2125 1.1 26.0063 0.6875 25.7313L1.16875 24.2875ZM6.1875 25.9375L8.18125 15.625H10.175L9.41875 19.75V19.8188C9.96875 19.2 10.6562 18.7875 11.55 18.7875C12.5812 18.7875 13.2 19.475 13.2 20.6437C13.2 20.9875 13.1313 21.4688 13.0625 21.8813L12.3062 25.9375H10.3125L11.0688 21.95C11.1375 21.675 11.1375 21.4 11.1375 21.125C11.1375 20.7125 10.9313 20.3687 10.5188 20.3687C9.9 20.3687 9.2125 21.125 8.9375 22.4312L8.25 25.8688H6.1875V25.9375ZM20.5562 21.6063C20.5562 24.0813 18.975 26.2125 16.5688 26.2125C14.7812 26.2125 13.8188 24.975 13.8188 23.3937C13.8188 20.9187 15.4 18.7875 17.875 18.7875C19.6625 18.7875 20.5562 20.1625 20.5562 21.6063ZM15.8125 23.3937C15.8125 24.15 16.0875 24.7 16.775 24.7C17.875 24.7 18.425 22.775 18.425 21.5375C18.425 20.9188 18.2188 20.3 17.4625 20.3C16.4312 20.3687 15.8125 22.225 15.8125 23.3937ZM20.0063 28.6875L21.3813 21.5375C21.5188 20.7125 21.725 19.75 21.7938 19.0625H23.5812L23.4437 19.75C23.9937 19.0625 24.75 18.65 25.575 18.65C27.0188 18.65 27.6375 19.9563 27.6375 21.2625C27.6375 23.7375 26.0562 26.1437 23.7188 26.1437C23.375 26.2125 22.8937 25.9375 22.6875 25.9375H22.6188L22.0687 28.6875H20.0063ZM22.8937 24.425C23.1 24.6312 23.375 24.7 23.7188 24.7C24.8188 24.7 25.6437 22.8438 25.6437 21.5375C25.6437 20.9875 25.4375 20.4375 24.8187 20.4375C24.1312 20.4375 23.4438 21.2625 23.2375 22.5L22.8937 24.425ZM27.8438 25.9375L29.2188 19.0625H31.2812L29.9062 25.9375H27.8438ZM30.4562 18.375C29.9062 18.375 29.4938 17.825 29.4938 17.2062C29.4938 16.5187 29.975 15.9688 30.6625 15.9688C31.2812 15.9688 31.6937 16.5188 31.6937 17.0688C31.625 17.825 31.075 18.375 30.4562 18.375ZM31.625 25.9375L32.725 20.4375H31.7625L32.0375 19.0625H33L33.0687 18.65C33.2062 17.825 33.55 16.9312 34.2375 16.3125C34.7875 15.8313 35.475 15.625 36.2313 15.625C36.7125 15.625 37.125 15.6938 37.3312 15.7625L36.9188 17.3438C36.7125 17.275 36.5062 17.2062 36.3 17.2062C35.6125 17.2062 35.2 17.8937 35.1312 18.5812L34.925 19.0625H36.3L36.025 20.4375H34.65L33.55 25.9375H31.625ZM38.8438 19.0625L39.1875 22.225C39.2562 22.9125 39.325 23.1875 39.3937 23.875C39.5312 23.1875 39.6688 22.9813 40.0125 22.225L41.25 19.0625H43.3125L40.8375 24.2875C39.9438 26.075 39.1188 27.3813 38.1562 28.275C37.4688 28.9625 36.575 29.2375 36.1625 29.375L35.6125 27.6562C35.9562 27.5188 36.3688 27.3813 36.7812 27.1063C37.2625 26.7625 37.675 26.35 37.8812 25.8688C37.95 25.8 37.95 25.7312 37.95 25.5938L36.7125 19.0625H38.8438Z" fill="#B4E52C"/>
<path d="M4.5375 18.7875C5.29375 18.7875 5.9125 18.925 6.25625 19.1313L5.775 20.575C5.5 20.4375 5.01875 20.3 4.5375 20.3C3.9875 20.3 3.575 20.575 3.575 20.9875C3.575 21.3312 3.85 21.5375 4.33125 21.8125C5.0875 22.2937 5.775 22.9125 5.775 23.7375C5.775 25.3187 4.46875 26.2813 2.68125 26.2125C1.85625 26.2125 1.1 26.0063 0.6875 25.7313L1.16875 24.2875C1.5125 24.4937 2.2 24.7688 2.81875 24.7C3.36875 24.7 3.7125 24.425 3.7125 24.0125C3.7125 23.6688 3.50625 23.3937 2.8875 23.05C2.13125 22.6375 1.58125 22.0188 1.58125 21.1938M6.1875 25.9375L7.975 17.7563L10.175 15.7625L9.41875 19.8188C9.96875 19.2 10.6562 18.7875 11.55 18.7875C12.5812 18.7875 13.2 19.475 13.2 20.6437C13.2 20.9875 13.1313 21.4688 13.0625 21.8813L12.3062 25.9375H10.3125L11.0688 21.95C11.1375 21.675 11.1375 21.4 11.1375 21.125C11.1375 20.7125 10.9313 20.3687 10.5188 20.3687C9.9 20.3687 9.2125 21.125 8.9375 22.4312L8.25 25.8688H6.1875V25.9375ZM17.8062 18.7875C19.6625 18.7875 20.5562 20.1625 20.5562 21.6063C20.5562 24.0813 18.975 26.2125 16.5688 26.2125C14.7812 26.2125 13.8188 24.975 13.8188 23.3937M15.8125 23.3937C15.8125 24.15 16.0875 24.7 16.775 24.7C17.875 24.7 18.425 22.775 18.425 21.5375C18.425 20.9188 18.2188 20.3 17.4625 20.3C16.4312 20.3687 15.8125 22.225 15.8125 23.3937ZM23.65 19.0625L23.5125 19.75C24.0625 19.0625 24.8188 18.65 25.6437 18.65C27.0875 18.65 27.7062 19.9563 27.7062 21.2625C27.7062 23.7375 26.125 26.1437 23.7875 26.1437C23.375 26.2125 22.8937 25.9375 22.6875 25.9375H22.6188L22.0687 28.6875H20.075L21.45 21.4M22.8937 24.425C23.1 24.6312 23.375 24.7 23.7188 24.7C24.8188 24.7 25.6437 22.8438 25.6437 21.5375C25.6437 20.9875 25.4375 20.4375 24.8187 20.4375C24.1312 20.4375 23.4438 21.2625 23.2375 22.5L22.8937 24.425ZM27.8438 25.9375L29.2188 20.7125L31.2812 19.0625L29.9062 25.9375H27.8438ZM30.6625 15.9688C31.2812 15.9688 31.6937 16.45 31.6937 17.0688C31.6937 17.825 31.1438 18.375 30.525 18.375C29.975 18.375 29.5625 17.825 29.5625 17.2062M36.1625 15.625C36.6437 15.625 37.0563 15.6937 37.2625 15.8312L36.85 17.4125C36.6437 17.3438 36.4375 17.275 36.2313 17.275C35.5438 17.275 35.1312 17.9625 35.0625 18.65L34.925 19.0625H36.3L36.025 20.4375H34.65L33.55 25.9375H31.625L32.725 20.4375H31.7625L32.0375 19.0625H33L33.0687 18.65M38.8438 19.0625L39.1875 22.1562C39.2562 22.8438 39.325 23.1875 39.3937 23.875C39.5312 23.1875 39.6688 22.9813 40.0125 22.225L41.25 19.0625H43.3125L40.8375 24.2875C39.9438 26.075 39.1188 27.3813 38.1562 28.275C37.4688 28.9625 36.575 29.2375 36.1625 29.375L35.6125 27.6562C35.9562 27.5188 36.3688 27.3813 36.7812 27.1063C37.2625 26.7625 37.675 26.35 37.8812 25.8688C37.95 25.8 37.95 25.6625 37.95 25.525L37.4688 20.575L38.8438 19.0625Z" fill="#8BB43F"/>
</svg>

<svg xmlns="http://www.w3.org/2000/svg" width="44" height="45" fill="none"><path fill="#B4E52C" d="M1.17 24.29c.34.2 1.03.48 1.65.41.55 0 .9-.27.9-.69 0-.34-.21-.62-.83-.96-.76-.41-1.3-1.03-1.3-1.86 0-1.44 1.23-2.4 2.95-2.4.75 0 1.37.14 1.72.34l-.48 1.45a3 3 0 0 0-1.24-.28c-.55 0-.96.27-.96.69 0 .34.27.55.75.82.76.48 1.45 1.1 1.45 1.93 0 1.58-1.31 2.54-3.1 2.47-.82 0-1.58-.2-2-.48l.49-1.44Zm5.02 1.65 2-10.32h1.99l-.76 4.13v.07a2.78 2.78 0 0 1 2.13-1.03c1.03 0 1.65.69 1.65 1.85 0 .35-.07.83-.14 1.24l-.75 4.06h-2l.76-3.99c.07-.27.07-.55.07-.82 0-.42-.2-.76-.62-.76-.62 0-1.3.75-1.58 2.06l-.69 3.44H6.19v.07Zm14.37-4.33c0 2.47-1.58 4.6-4 4.6-1.78 0-2.74-1.23-2.74-2.82 0-2.47 1.58-4.6 4.05-4.6 1.8 0 2.69 1.37 2.69 2.82Zm-4.75 1.78c0 .76.28 1.31.96 1.31 1.1 0 1.66-1.93 1.66-3.16 0-.62-.21-1.24-.97-1.24-1.03.07-1.65 1.93-1.65 3.1Zm4.2 5.3 1.37-7.15c.14-.83.35-1.79.41-2.48h1.8l-.15.69c.55-.69 1.31-1.1 2.13-1.1 1.45 0 2.07 1.3 2.07 2.61 0 2.48-1.58 4.88-3.92 4.88-.34.07-.83-.2-1.03-.2h-.07l-.55 2.75H20Zm2.88-4.27c.21.21.48.28.83.28 1.1 0 1.92-1.86 1.92-3.16 0-.55-.2-1.1-.82-1.1-.69 0-1.38.82-1.58 2.06l-.35 1.93Zm4.95 1.52 1.38-6.88h2.06l-1.37 6.88h-2.07Zm2.62-7.57c-.55 0-.97-.55-.97-1.16 0-.7.49-1.24 1.17-1.24.62 0 1.03.55 1.03 1.1-.07.75-.62 1.3-1.23 1.3Zm1.16 7.57 1.1-5.5h-.96l.28-1.38H33l.07-.41a4 4 0 0 1 1.17-2.34 2.94 2.94 0 0 1 2-.68c.47 0 .88.06 1.1.13l-.42 1.58a2 2 0 0 0-.62-.13c-.69 0-1.1.68-1.17 1.37l-.2.48h1.37l-.27 1.38h-1.38l-1.1 5.5h-1.92Zm7.22-6.88.35 3.17c.07.68.14.96.2 1.64.14-.68.28-.89.62-1.64l1.24-3.17h2.06l-2.47 5.23c-.9 1.79-1.72 3.1-2.68 3.98-.7.7-1.58.97-2 1.1l-.55-1.71c.35-.14.76-.28 1.17-.55.48-.35.9-.76 1.1-1.24.07-.07.07-.14.07-.28l-1.24-6.53h2.13Z"/><path fill="#8BB43F" d="M4.54 18.79c.75 0 1.37.14 1.72.34l-.48 1.45a3 3 0 0 0-1.24-.28c-.55 0-.96.27-.96.69 0 .34.27.55.75.82.76.48 1.45 1.1 1.45 1.93 0 1.58-1.31 2.54-3.1 2.47-.82 0-1.58-.2-2-.48l.49-1.44c.34.2 1.03.48 1.65.41.55 0 .9-.27.9-.69 0-.34-.21-.62-.83-.96-.76-.41-1.3-1.03-1.3-1.86m4.6 4.75 1.78-8.18 2.2-2-.75 4.06a2.78 2.78 0 0 1 2.13-1.03c1.03 0 1.65.69 1.65 1.85 0 .35-.07.83-.14 1.24l-.75 4.06h-2l.76-3.99c.07-.27.07-.55.07-.82 0-.42-.2-.76-.62-.76-.62 0-1.3.75-1.58 2.06l-.69 3.44H6.19v.07Zm11.62-7.15c1.85 0 2.75 1.37 2.75 2.82 0 2.47-1.58 4.6-4 4.6-1.78 0-2.74-1.23-2.74-2.82m2 0c0 .76.27 1.31.95 1.31 1.1 0 1.66-1.93 1.66-3.16 0-.62-.21-1.24-.97-1.24-1.03.07-1.65 1.93-1.65 3.1Zm7.83-4.33-.14.69c.55-.69 1.3-1.1 2.13-1.1 1.45 0 2.07 1.3 2.07 2.61 0 2.48-1.59 4.88-3.92 4.88-.41.07-.9-.2-1.1-.2h-.07l-.55 2.75h-2l1.38-7.29m1.44 3.03c.21.2.48.27.83.27 1.1 0 1.92-1.86 1.92-3.16 0-.55-.2-1.1-.82-1.1-.69 0-1.38.82-1.58 2.06l-.35 1.93Zm4.95 1.5 1.38-5.22 2.06-1.65-1.37 6.88h-2.07Zm2.82-9.96c.62 0 1.03.48 1.03 1.1 0 .75-.55 1.3-1.17 1.3-.54 0-.96-.55-.96-1.16m6.6-1.59c.48 0 .9.07 1.1.21l-.41 1.58c-.2-.07-.41-.14-.62-.14-.69 0-1.1.7-1.17 1.38l-.14.41h1.38l-.27 1.38h-1.38l-1.1 5.5h-1.92l1.1-5.5h-.97l.28-1.38H33l.07-.41m5.77.41.35 3.1c.07.68.14 1.03.2 1.71.14-.68.28-.89.62-1.64l1.24-3.17h2.06l-2.47 5.23c-.9 1.79-1.72 3.1-2.68 3.98-.7.7-1.58.97-2 1.1l-.55-1.71c.35-.14.76-.28 1.17-.55.48-.35.9-.76 1.1-1.24.07-.07.07-.2.07-.35l-.48-4.95 1.37-1.5Z"/></svg>
